packages/components/src/components/icon/common/ic-demo-reset-balance-done.svg

<svg width="128" height="128" viewBox="0 0 128 128" fill="none" xmlns="http://www.w3.org/2000/svg">
<rect width="128" height="128" fill="white"/>
<g clip-path="url(#clip0_7434_94967)">
<path d="M85.6906 29.9139H83.6985H82.3705H76.3942L81.2637 13.0918H23.9357C17.9594 13.0918 13.0898 17.9614 13.0898 23.9376V85.6926C13.0898 89.4554 16.1887 92.5542 19.9515 92.5542H85.6906C89.4535 92.5542 92.5523 89.4554 92.5523 85.6926V36.7756C92.5523 33.0127 89.4535 29.9139 85.6906 29.9139ZM23.9357 17.74H75.0661L73.9594 21.5029H23.7143C22.3863 21.5029 21.2796 22.6096 21.2796 23.9376C21.2796 25.2657 22.3863 26.3724 23.7143 26.3724H72.8527L71.746 30.1353H25.9278C20.8369 30.1353 17.7381 27.7005 17.7381 24.159C17.7381 20.3961 20.3942 17.74 23.9357 17.74Z" fill="#85ACB0"/>
<path d="M39.8731 56.916H26.3711V62.0069H39.8731V56.916Z" fill="white"/>
<path d="M60.6778 56.916H47.1758V62.0069H60.6778V56.916Z" fill="white"/>
<path d="M79.2715 56.916H65.7695V62.0069H79.2715V56.916Z" fill="white"/>
<path d="M46.0714 63.7812H40.9805V68.8722H46.0714V63.7812Z" fill="white"/>
<g style="mix-blend-mode:multiply">
<path d="M88.3777 114.941C103.047 114.941 114.939 103.049 114.939 88.3796C114.939 73.7102 103.047 61.8184 88.3777 61.8184C73.7083 61.8184 61.8164 73.7102 61.8164 88.3796C61.8164 103.049 73.7083 114.941 88.3777 114.941Z" fill="#FF444F"/>
</g>
<path d="M84.6154 99.0049L75.0977 89.4871L79.0818 85.2816L84.6154 90.8151L97.6747 77.7559L101.659 81.9614L84.6154 99.0049Z" fill="white"/>
</g>
<defs>
<clipPath id="clip0_7434_94967">
<rect width="101.818" height="101.818" fill="white" transform="translate(13.0898 13.0918)"/>
</clipPath>
</defs>
</svg>

<svg width="128" height="128" fill="none" xmlns="http://www.w3.org/2000/svg"><path fill="#fff" d="M0 0h128v128H0z"/><g clip-path="url(#a)"><path d="M85.69 29.914h-9.296l4.87-16.822H23.936c-5.977 0-10.846 4.87-10.846 10.846v61.755c0 3.762 3.099 6.861 6.861 6.861h65.74c3.763 0 6.861-3.099 6.861-6.861V36.776c0-3.763-3.099-6.862-6.861-6.862ZM23.937 17.74h51.13l-1.107 3.763H23.714a2.456 2.456 0 0 0-2.434 2.435 2.456 2.456 0 0 0 2.434 2.434h49.139l-1.107 3.763H25.928c-5.091 0-8.19-2.434-8.19-5.976 0-3.763 2.656-6.419 6.198-6.419Z" fill="#85ACB0"/><path d="M39.873 56.916H26.371v5.09h13.502v-5.09Zm20.805 0H47.176v5.09h13.502v-5.09Zm18.594 0H65.769v5.09h13.502v-5.09Zm-33.201 6.865h-5.09v5.091h5.09v-5.09Z" fill="#fff"/><path d="M88.378 114.941c14.669 0 26.561-11.892 26.561-26.561 0-14.67-11.892-26.562-26.561-26.562-14.67 0-26.562 11.892-26.562 26.562 0 14.669 11.892 26.561 26.562 26.561Z" fill="#FF444F" style="mix-blend-mode:multiply"/><path d="m84.615 99.005-9.517-9.518 3.984-4.205 5.533 5.533 13.06-13.06 3.984 4.206-17.044 17.044Z" fill="#fff"/></g><defs><clipPath id="a"><path fill="#fff" d="M13.09 13.092h101.818V114.91H13.09z"/></clipPath></defs></svg>
